Numix-Light/16/status/indicator-keyboard-Ha-1.svg

<?xml version="1.0" encoding="UTF-8" standalone="no"?>
<svg
   xmlns:dc="http://purl.org/dc/elements/1.1/"
   xmlns:cc="http://creativecommons.org/ns#"
   xmlns:rdf="http://www.w3.org/1999/02/22-rdf-syntax-ns#"
   xmlns:svg="http://www.w3.org/2000/svg"
   xmlns="http://www.w3.org/2000/svg"
   xmlns:sodipodi="http://sodipodi.sourceforge.net/DTD/sodipodi-0.dtd"
   xmlns:inkscape="http://www.inkscape.org/namespaces/inkscape"
   viewBox="0 0 16 16"
   id="svg2"
   version="1.1"
   inkscape:version="0.91 r13725"
   sodipodi:docname="indicator-keyboard-Ha-1.svg">
  <metadata
     id="metadata14">
    <rdf:RDF>
      <cc:Work
         rdf:about="">
        <dc:format>image/svg+xml</dc:format>
        <dc:type
           rdf:resource="http://purl.org/dc/dcmitype/StillImage" />
      </cc:Work>
    </rdf:RDF>
  </metadata>
  <defs
     id="defs12" />
  <sodipodi:namedview
     pagecolor="#ffffff"
     bordercolor="#666666"
     borderopacity="1"
     objecttolerance="10"
     gridtolerance="10"
     guidetolerance="10"
     inkscape:pageopacity="0"
     inkscape:pageshadow="2"
     inkscape:window-width="459"
     inkscape:window-height="369"
     id="namedview10"
     showgrid="false"
     inkscape:zoom="14.75"
     inkscape:cx="8"
     inkscape:cy="8"
     inkscape:window-x="65"
     inkscape:window-y="24"
     inkscape:window-maximized="0"
     inkscape:current-layer="svg2" />
  <path
     style="fill:#353535;fill-opacity:1"
     d="M 1.5996094 0 C 0.71320937 2.9605947e-16 0 0.71320937 0 1.5996094 L 0 14.400391 C 2.9605947e-16 15.286791 0.71320937 16 1.5996094 16 L 14.400391 16 C 15.286791 16 16 15.286791 16 14.400391 L 16 1.5996094 C 16 0.71320937 15.286791 0 14.400391 0 L 1.5996094 0 z M 1.9667969 4.859375 L 2.5800781 4.859375 L 2.5800781 7.5683594 L 5.9628906 7.5683594 L 5.9628906 4.859375 L 6.5761719 4.859375 L 6.5761719 11.095703 L 5.9628906 11.095703 L 5.9628906 8.0996094 L 2.5800781 8.0996094 L 2.5800781 11.095703 L 1.9667969 11.095703 L 1.9667969 4.859375 z M 9.5664062 6.3359375 C 9.8724065 6.3359375 10.131797 6.3807031 10.341797 6.4707031 C 10.557797 6.5547031 10.731281 6.6740781 10.863281 6.8300781 C 10.995281 6.9800781 11.090391 7.1591406 11.150391 7.3691406 C 11.210391 7.5791406 11.240234 7.8086875 11.240234 8.0546875 L 11.240234 10.988281 C 11.180234 11.006281 11.094469 11.026781 10.980469 11.050781 C 10.866469 11.068781 10.733984 11.089281 10.583984 11.113281 C 10.433984 11.137281 10.266078 11.155969 10.080078 11.167969 C 9.9000779 11.185969 9.7134844 11.195313 9.5214844 11.195312 C 9.2754844 11.195312 9.0478906 11.167281 8.8378906 11.113281 C 8.6338906 11.059281 8.4548281 10.975328 8.2988281 10.861328 C 8.1488281 10.741328 8.0275 10.592109 7.9375 10.412109 C 7.8535 10.226109 7.8125 10.000328 7.8125 9.7363281 C 7.8125 9.4843281 7.8590781 9.2698437 7.9550781 9.0898438 C 8.0510781 8.9098437 8.1873281 8.7624375 8.3613281 8.6484375 C 8.5353281 8.5284375 8.7424219 8.4407187 8.9824219 8.3867188 C 9.2224219 8.3327188 9.483625 8.3066406 9.765625 8.3066406 C 9.849625 8.3066406 9.9353904 8.3122187 10.025391 8.3242188 C 10.121391 8.3302187 10.210922 8.341375 10.294922 8.359375 C 10.384922 8.371375 10.461484 8.3862969 10.521484 8.4042969 C 10.587484 8.4162969 10.63225 8.4294063 10.65625 8.4414062 L 10.65625 8.1523438 C 10.65625 7.9903438 10.643141 7.8355469 10.619141 7.6855469 C 10.595141 7.5295469 10.541031 7.3914844 10.457031 7.2714844 C 10.379031 7.1454844 10.265234 7.0466094 10.115234 6.9746094 C 9.9712341 6.8966094 9.7790625 6.8574219 9.5390625 6.8574219 C 9.1970625 6.8574219 8.9433906 6.8816875 8.7753906 6.9296875 C 8.6073906 6.9776875 8.48425 7.016875 8.40625 7.046875 L 8.3242188 6.5332031 C 8.4262188 6.4852031 8.5829688 6.4404375 8.7929688 6.3984375 C 9.0089687 6.3564375 9.2664063 6.3359375 9.5664062 6.3359375 z M 9.7460938 8.8105469 C 9.6020937 8.8105469 9.452875 8.8217031 9.296875 8.8457031 C 9.140875 8.8637031 8.9972344 8.9084687 8.8652344 8.9804688 C 8.7332344 9.0464688 8.6250156 9.1397656 8.5410156 9.2597656 C 8.4570156 9.3797656 8.4140625 9.5383281 8.4140625 9.7363281 C 8.4140625 9.9103281 8.4420937 10.057734 8.4960938 10.177734 C 8.5560938 10.297734 8.6362812 10.394797 8.7382812 10.466797 C 8.8462812 10.538797 8.9731875 10.592906 9.1171875 10.628906 C 9.2671875 10.658906 9.4350938 10.673828 9.6210938 10.673828 C 9.8490937 10.673828 10.046843 10.666297 10.214844 10.654297 C 10.388844 10.636297 10.53625 10.615797 10.65625 10.591797 L 10.65625 8.953125 C 10.59025 8.923125 10.485797 8.8932813 10.341797 8.8632812 C 10.197797 8.8272812 9.998094 8.8105469 9.7460938 8.8105469 z M 13.763672 8.8417969 L 14.033203 8.8417969 L 14.033203 12.896484 L 13.652344 12.896484 L 13.652344 9.421875 C 13.609444 9.468675 13.552622 9.5157063 13.482422 9.5664062 C 13.416122 9.6171063 13.339706 9.66805 13.253906 9.71875 C 13.168106 9.76555 13.079928 9.812575 12.986328 9.859375 C 12.892728 9.902275 12.798678 9.9375437 12.705078 9.9648438 L 12.59375 9.671875 C 12.82775 9.5899751 13.03545 9.4880813 13.21875 9.3632812 C 13.40205 9.2345813 13.584272 9.0601969 13.763672 8.8417969 z "
     id="path4" />
</svg>

<svg xmlns="http://www.w3.org/2000/svg" viewBox="0 0 16 16">
 <path d="m 1.6 0 c -0.886 0 -1.6 0.713 -1.6 1.6 l 0 12.801 c 0 0.886 0.713 1.6 1.6 1.6 l 12.801 0 c 0.886 0 1.6 -0.713 1.6 -1.6 l 0 -12.801 c 0 -0.886 -0.713 -1.6 -1.6 -1.6 l -12.801 0 z m 0.367 4.859 l 0.613 0 l 0 2.709 l 3.383 0 l 0 -2.709 l 0.613 0 l 0 6.236 l -0.613 0 l 0 -2.996 l -3.383 0 l 0 2.996 l -0.613 0 l 0 -6.236 z m 7.6 1.477 c 0.306 0 0.565 0.045 0.775 0.135 c 0.216 0.084 0.389 0.203 0.521 0.359 c 0.132 0.15 0.227 0.329 0.287 0.539 c 0.06 0.21 0.09 0.44 0.09 0.686 l 0 2.934 c -0.06 0.018 -0.146 0.038 -0.26 0.063 c -0.114 0.018 -0.246 0.038 -0.396 0.063 c -0.15 0.024 -0.318 0.043 -0.504 0.055 c -0.18 0.018 -0.367 0.027 -0.559 0.027 c -0.246 0 -0.474 -0.028 -0.684 -0.082 c -0.204 -0.054 -0.383 -0.138 -0.539 -0.252 c -0.15 -0.12 -0.271 -0.269 -0.361 -0.449 c -0.084 -0.186 -0.125 -0.412 -0.125 -0.676 c 0 -0.252 0.047 -0.466 0.143 -0.646 c 0.096 -0.18 0.232 -0.327 0.406 -0.441 c 0.174 -0.12 0.381 -0.208 0.621 -0.262 c 0.24 -0.054 0.501 -0.08 0.783 -0.08 c 0.084 0 0.17 0.006 0.26 0.018 c 0.096 0.006 0.186 0.017 0.27 0.035 c 0.09 0.012 0.167 0.027 0.227 0.045 c 0.066 0.012 0.111 0.025 0.135 0.037 l 0 -0.289 c 0 -0.162 -0.013 -0.317 -0.037 -0.467 c -0.024 -0.156 -0.078 -0.294 -0.162 -0.414 c -0.078 -0.126 -0.192 -0.225 -0.342 -0.297 c -0.144 -0.078 -0.336 -0.117 -0.576 -0.117 c -0.342 0 -0.596 0.024 -0.764 0.072 c -0.168 0.048 -0.291 0.087 -0.369 0.117 l -0.082 -0.514 c 0.102 -0.048 0.259 -0.093 0.469 -0.135 c 0.216 -0.042 0.473 -0.063 0.773 -0.063 z m 0.18 2.475 c -0.144 0 -0.293 0.011 -0.449 0.035 c -0.156 0.018 -0.3 0.063 -0.432 0.135 c -0.132 0.066 -0.24 0.159 -0.324 0.279 c -0.084 0.12 -0.127 0.279 -0.127 0.477 c 0 0.174 0.028 0.321 0.082 0.441 c 0.06 0.12 0.14 0.217 0.242 0.289 c 0.108 0.072 0.235 0.126 0.379 0.162 c 0.15 0.03 0.318 0.045 0.504 0.045 c 0.228 0 0.426 -0.008 0.594 -0.02 c 0.174 -0.018 0.321 -0.038 0.441 -0.063 l 0 -1.639 c -0.066 -0.03 -0.17 -0.06 -0.314 -0.09 c -0.144 -0.036 -0.344 -0.053 -0.596 -0.053 z m 4.02 0.031 l 0.27 0 l 0 4.055 l -0.381 0 l 0 -3.475 c -0.043 0.047 -0.1 0.094 -0.17 0.145 c -0.066 0.051 -0.143 0.102 -0.229 0.152 c -0.086 0.047 -0.174 0.094 -0.268 0.141 c -0.094 0.043 -0.188 0.078 -0.281 0.105 l -0.111 -0.293 c 0.234 -0.082 0.442 -0.184 0.625 -0.309 c 0.183 -0.129 0.366 -0.303 0.545 -0.521 z" style="fill:#353535;fill-opacity:1"/>
</svg>
